X: 100415
M: C|
L: 1/8
K: D
(vF>G) |\
K: A
|: z2 |\
va2e>a g2d>g | eEAc e2(dc) | BEGB dBGE | AEcA e^efg |\
a2e>a g2d>f | eEAc e2(dc) | BAGF EdcB | A2a2 a2 "_D.C.":|
K: G
"Trio."|: z2 |\


